src/pos-icons/security.svg

<svg height="24" viewBox="0 0 24 24" width="24" xmlns="http://www.w3.org/2000/svg"><path d="m12 12h7c-.53 4.11-3.28 7.78-7 8.92v-8.92h-7v-5.7l7-3.11m0-2.19-9 4v6c0 5.55 3.84 10.73 9 12 5.16-1.27 9-6.45 9-12v-6z"/></svg>

<?xml version="1.0" encoding="UTF-8"?><!DOCTYPE svg PUBLIC "-//W3C//DTD SVG 1.1//EN" "http://www.w3.org/Graphics/SVG/1.1/DTD/svg11.dtd"><svg xmlns="http://www.w3.org/2000/svg" xmlns:xlink="http://www.w3.org/1999/xlink" version="1.1" id="mdi-security" width="24" height="24" viewBox="0 0 24 24"><path d="M12,12H19C18.47,16.11 15.72,19.78 12,20.92V12H5V6.3L12,3.19M12,1L3,5V11C3,16.55 6.84,21.73 12,23C17.16,21.73 21,16.55 21,11V5L12,1Z" /></svg>
